X:34
T: Ihatnám én, de nincs mit...
K: Bb
M: 4/4
L: 1/4
g<g d d | g<g a2 | 
agfd | cd d2 | 
fgdc | B2 ce | 
dc=Bc | G2 G G | 

